!!!OTL: Der Werber und der Jude
!!!OTL-incipit:Zu Strassburg steht ein hohes Haus,
!!!ARE: Europa, Mitteleuropa, Deutschland / France, Lothringen, Kr. Saargemuend,
!!    Hambach
!!!YOR: 6, S. 148
!!    ????
!!!SCT: Q0131
!!!TXL: @@DE
!!!YEM: Copyright 1995, estate of Helmut Schaffrath.
**kern	**text
*ICvox	*
*M4/4	*
*met(c)	*
*k[f#]	*
*G:	*
{4d	1._Zu
=1	=1
4.g	Stras-
8a	-burg
4b	steht
4cc	ein
=2	=2
4.a	ho-
8b	-hes
4g}	Haus,
{4d	da
=3	=3
4.g	schaut
8a	ein
4b	schwarz-
4cc	-braun's
=4	=4
4a	Mä-
8aL	-del
8bJ	her-
4g}	-aus.
{4b	Sie
=5	=5
4dd	isch
4dd	sich
4dd	nicht
8eeL	da
8eeJ	da-
=6	=6
2dd	-hei-
4a}	-me,
{4a	ein
=7	=7
4dd	Kauf-
4cc	-manns-
4b	-töch-
4a	-ter-
=8	=8
4g	-lein
4e	ischt
4d}	sie
{4d	zu
=9	=9
4g	Köl-
4a	-le
4b	an
4cc	dem
=10	=10
2a	Rhei-
4g}	-ne.
==	==
!!!AGN: Ballade, Braut - Werbung, Erpressung
!!!ONB: ESAC (Essen Associative Code) Database: BALLADE
!!!AMT: simple quadruple
!!!AIN: vox
!!!EED: Helmut Schaffrath
!!!EEV: 1.0
!!@@COMMENT:"A 185 174, Hambach, Kr. Saargemünd, Lothringen.
!!Vorsänger: Papa Gerné (mit Varianten einer
!!ʒweiten Aufʒeichnung des gleichen Sängers)."
!!@@END:
!!!source: Deutsche Volkslieder mit ihren Melodien Balladen. Herausgegeben vom Deutschen Volksliedarchiv. Sechster Band. Freiburg/Breisgau 1976.
!!!page: 148
!!!ENC: Anna Maria Matuszewska
!!!EEV: 2025/03/06
*-	*-
